; G-Code generated by Simplify3D(R) Version 4.1.1
; Jan 26, 2020 at 9:26:21 AM
; Settings Summary
;   processName,Bits 0.1mm (eSun Orange 1.71mm)(1)
;   applyToModels,inside-mount-bottom(4),inside-mount-bottom(4)(2),clip-8x3mm-024in
;   profileName,Default (modified)
;   profileVersion,2015-05-01 08:00:00
;   baseProfile,MakerBot Replicator 2X(4) (modified)
;   printMaterial,ABS
;   printQuality,Fast
;   printExtruders,Right Extruder Only
;   extruderName,Right Extruder,Left Extruder
;   extruderToolheadNumber,0,1
;   extruderDiameter,0.4,0.4
;   extruderAutoWidth,0,0
;   extruderWidth,0.4,0.4
;   extrusionMultiplier,1,0.75
;   extruderUseRetract,1,1
;   extruderRetractionDistance,1,1
;   extruderExtraRestartDistance,0,0
;   extruderRetractionZLift,0,0
;   extruderRetractionSpeed,1200,1200
;   extruderUseCoasting,0,0
;   extruderCoastingDistance,0.2,0.2
;   extruderUseWipe,0,0
;   extruderWipeDistance,5,5
;   primaryExtruder,0
;   layerHeight,0.15
;   topSolidLayers,4
;   bottomSolidLayers,4
;   perimeterOutlines,3
;   printPerimetersInsideOut,1
;   startPointOption,2
;   startPointOriginX,0
;   startPointOriginY,0
;   sequentialIslands,0
;   spiralVaseMode,0
;   firstLayerHeightPercentage,200
;   firstLayerWidthPercentage,100
;   firstLayerUnderspeed,0.5
;   useRaft,0
;   raftExtruder,0
;   raftTopLayers,3
;   raftBaseLayers,2
;   raftOffset,3
;   raftSeparationDistance,0.14
;   raftTopInfill,100
;   aboveRaftSpeedMultiplier,0.3
;   useSkirt,1
;   skirtExtruder,0
;   skirtLayers,1
;   skirtOutlines,16
;   skirtOffset,0
;   usePrimePillar,0
;   primePillarExtruder,999
;   primePillarWidth,12
;   primePillarLocation,7
;   primePillarSpeedMultiplier,1
;   useOozeShield,0
;   oozeShieldExtruder,999
;   oozeShieldOffset,2
;   oozeShieldOutlines,1
;   oozeShieldSidewallShape,1
;   oozeShieldSidewallAngle,30
;   oozeShieldSpeedMultiplier,1
;   infillExtruder,0
;   internalInfillPattern,Rectilinear
;   externalInfillPattern,Rectilinear
;   infillPercentage,20
;   outlineOverlapPercentage,20
;   infillExtrusionWidthPercentage,130
;   minInfillLength,5
;   infillLayerInterval,1
;   internalInfillAngles,45,-45
;   overlapInternalInfillAngles,0
;   externalInfillAngles,45,-45
;   generateSupport,0
;   supportExtruder,0
;   supportInfillPercentage,25
;   supportExtraInflation,0
;   supportBaseLayers,1
;   denseSupportExtruder,0
;   denseSupportLayers,0
;   denseSupportInfillPercentage,70
;   supportLayerInterval,1
;   supportHorizontalPartOffset,0.3
;   supportUpperSeparationLayers,1
;   supportLowerSeparationLayers,1
;   supportType,0
;   supportGridSpacing,4
;   maxOverhangAngle,60
;   supportAngles,45
;   temperatureName,Right Extruder,Left Extruder,Heated Build Platform
;   temperatureNumber,0,1,0
;   temperatureSetpointCount,2,1,1
;   temperatureSetpointLayers,1,2,1,1
;   temperatureSetpointTemperatures,240,240,0,110
;   temperatureStabilizeAtStartup,0,0,0
;   temperatureHeatedBed,0,0,1
;   fanLayers,1
;   fanSpeeds,0
;   blipFanToFullPower,0
;   adjustSpeedForCooling,1
;   minSpeedLayerTime,15
;   minCoolingSpeedSlowdown,10
;   increaseFanForCooling,0
;   minFanLayerTime,45
;   maxCoolingFanSpeed,100
;   increaseFanForBridging,0
;   bridgingFanSpeed,100
;   use5D,1
;   relativeEdistances,1
;   allowEaxisZeroing,0
;   independentExtruderAxes,1
;   includeM10123,0
;   stickySupport,1
;   applyToolheadOffsets,0
;   gcodeXoffset,0
;   gcodeYoffset,0
;   gcodeZoffset,0
;   overrideMachineDefinition,1
;   machineTypeOverride,0
;   strokeXoverride,250
;   strokeYoverride,150
;   strokeZoverride,150
;   originOffsetXoverride,125
;   originOffsetYoverride,75
;   originOffsetZoverride,0
;   homeXdirOverride,1
;   homeYdirOverride,1
;   homeZdirOverride,-1
;   flipXoverride,1
;   flipYoverride,-1
;   flipZoverride,1
;   toolheadOffsets,0,0|33,0|0,0|0,0|0,0|0,0
;   overrideFirmwareConfiguration,1
;   firmwareTypeOverride,MakerBot/Sailfish Firmware
;   GPXconfigOverride,r2x
;   baudRateOverride,115200
;   overridePrinterModels,1
;   printerModelsOverride,MakerBot_Replicator2X.stl
;   startingGcode,; **** Replicator 2X start.gcode ****,M73 P0 ; Enable build progress,G162 X Y F3000 ; Home XY maximum,G161 Z F1200 ; Home Z minimum,G92 Z-5 ; Set Z to -5,G1 Z0 ; Move Z to 0,G161 Z F100 ; Home Z slowly,M132 X Y Z A B ; Recall home offsets,M135 T0 ; Load right extruder offsets,G1 X-130 Y-75 Z30 F9000 ; Move to wait position off table,G130 X20 Y20 Z20 A20 B20 ; Lower stepper Vrefs while heating,M126 S[fan_speed_pwm] ; Set fan speed,M140 S[bed0_temperature] T0 ; Heat buildplate,M134 T0 ; Stabilize bed temperature,M104 S[extruder0_temperature] T0 ; Heat right extruder,M133 T0 ; Stabilize extruder temperature,,G4 P5000 ; Pause for 5 seconds,,G130 X127 Y127 Z40 A127 B127 ; Default stepper Vref,G92 A0 B0 ; Zero extruders,,; alternative startup,G1 Z0.4 ; position nozzle,G1 E25 F300 ; purge nozzle,G1 X-125 Y-70 Z0.15 F1200 ; slow wipe,G1 X-120 Y-65 Z0.5 F1200 ; lift,,; new line down LHS,G1 Z0.3 X-120 Y-65,G1 Y-30 E10,,G92 A0 B0 ; zero extruders,s,M320 ; enable accelerations,,M73 P1 ;@body (notify GPX body has started),; **** end of start.gcode ****
;   layerChangeGcode,
;   retractionGcode,
;   toolChangeGcode,
;   endingGcode,; **** Replicator 2X end.gcode ****,M73 P100 ; end build progress,G1 Z155 F1000 ; send Z axis to bottom of machine,M140 S0 T0 ; cool down HBP,M104 S0 T0 ; cool down right extruder,M104 S0 T1 ; cool down left extruder,M127 ; stop blower fan,G162 X Y F3000 ; home XY maximum,M18 ; disable stepper,M72 P1 ; play Ta-Da song,; **** end of end.gcode ****
;   exportFileFormat,x3g
;   celebration,0
;   celebrationSong,Random Song
;   postProcessing,
;   defaultSpeed,2400
;   outlineUnderspeed,0.5
;   solidInfillUnderspeed,0.8
;   supportUnderspeed,0.8
;   rapidXYspeed,11000
;   rapidZspeed,1200
;   minBridgingArea,50
;   bridgingExtraInflation,0
;   bridgingExtrusionMultiplier,1
;   bridgingSpeedMultiplier,0.6
;   useFixedBridgingAngle,0
;   fixedBridgingAngle,0
;   applyBridgingToPerimeters,0
;   filamentDiameters,1.71|1.75|1.75|1.75|1.75|1.75
;   filamentPricesPerKg,30|30|30|30|30|30
;   filamentDensities,1.25|1.25|1.25|1.25|1.25|1.25
;   useMinPrintHeight,0
;   minPrintHeight,0
;   useMaxPrintHeight,0
;   maxPrintHeight,6
;   useDiaphragm,0
;   diaphragmLayerInterval,20
;   robustSlicing,1
;   mergeAllIntoSolid,0
;   onlyRetractWhenCrossingOutline,1
;   retractBetweenLayers,0
;   useRetractionMinTravel,0
;   retractionMinTravel,3
;   retractWhileWiping,0
;   onlyWipeOutlines,1
;   avoidCrossingOutline,0
;   maxMovementDetourFactor,3
;   toolChangeRetractionDistance,12
;   toolChangeExtraRestartDistance,-0.5
;   toolChangeRetractionSpeed,600
;   externalThinWallType,0
;   internalThinWallType,2
;   thinWallAllowedOverlapPercentage,10
;   singleExtrusionMinLength,1
;   singleExtrusionMinPrintingWidthPercentage,50
;   singleExtrusionMaxPrintingWidthPercentage,200
;   singleExtrusionEndpointExtension,0.2
;   horizontalSizeCompensation,0
G90
M83
M104 S0 T1
; **** Replicator 2X start.gcode ****
M73 P0 ; Enable build progress
G162 X Y F3000 ; Home XY maximum
G161 Z F1200 ; Home Z minimum
G92 Z-5 ; Set Z to -5
G1 Z0 ; Move Z to 0
G161 Z F100 ; Home Z slowly
M132 X Y Z A B ; Recall home offsets
M135 T0 ; Load right extruder offsets
G1 X-130 Y-75 Z30 F9000 ; Move to wait position off table
G130 X20 Y20 Z20 A20 B20 ; Lower stepper Vrefs while heating
M127 ; Set fan speed
M140 S110 T0 ; Heat buildplate
M134 T0 ; Stabilize bed temperature
M104 S240 T0 ; Heat right extruder
M133 T0 ; Stabilize extruder temperature
G4 P5000 ; Pause for 5 seconds
G130 X127 Y127 Z40 A127 B127 ; Default stepper Vref
G92 A0 B0 ; Zero extruders
; alternative startup
G1 Z0.4 ; position nozzle
G1 E25 F300 ; purge nozzle
G1 X-125 Y-70 Z0.15 F1200 ; slow wipe
G1 X-120 Y-65 Z0.5 F1200 ; lift
; new line down LHS
G1 Z0.3 X-120 Y-65
G1 Y-30 E10
G92 A0 B0 ; zero extruders
s
M320 ; enable accelerations
M73 P1 ;@body (notify GPX body has started)
; **** end of start.gcode ****
; process Bits 0.1mm (eSun Orange 1.71mm)(1)
; layer 1, Z = 0.300
M135 T0
G1 E-1.0000 F1200
; feature skirt
; tool H0.300 W0.400
G1 Z0.300 F1200
G1 X3.700 Y2.518 F11000
G1 E1.0000 F1200
G1 X0.068 Y6.150 E0.2684 F1200
G1 X-6.541 Y6.150 E0.3453
G1 X-6.541 Y21.618 E0.8082
G1 X-10.173 Y25.250 E0.2684
G1 X-32.827 Y25.250 E1.1837
G1 X-36.459 Y21.618 E0.2684
G1 X-36.459 Y2.382 E1.0051
G1 X-32.827 Y-1.250 E0.2684
G1 X-29.045 Y-1.250 E0.1976
G1 X-36.849 Y-9.704 E0.6011
G1 X-37.700 Y-11.881 E0.1222
G1 X-37.700 Y-20.618 E0.4565
G1 X-34.068 Y-24.250 E0.2684
G1 X-29.568 Y-24.250 E0.2351
G1 X-29.512 Y-24.306 E0.0041
G1 X-27.233 Y-25.250 E0.1289
G1 X-17.767 Y-25.250 E0.4946
G1 X-15.488 Y-24.306 E0.1289
G1 X-15.432 Y-24.250 E0.0042
G1 X4.432 Y-24.250 E1.0379
G1 X4.488 Y-24.306 E0.0041
G1 X6.767 Y-25.250 E0.1289
G1 X16.233 Y-25.250 E0.4946
G1 X18.512 Y-24.306 E0.1289
G1 X18.568 Y-24.250 E0.0041
G1 X34.068 Y-24.250 E0.8099
G1 X37.700 Y-20.618 E0.2684
G1 X37.700 Y2.518 E1.2089
G1 X34.068 Y6.150 E0.2684
G1 X13.202 Y6.150 E1.0903
G1 X10.825 Y5.109 E0.1356
G1 X3.700 Y-2.609 E0.5488
G1 X3.700 Y2.518 E0.2679
G1 E-1.0000 F1200
G1 X3.300 Y2.353 F11000
G1 E1.0000 F1200
G1 X-0.098 Y5.750 E0.2511 F1200
G1 X-6.941 Y5.750 E0.3576
G1 X-6.941 Y21.452 E0.8205
G1 X-10.338 Y24.850 E0.2511
G1 X-32.662 Y24.850 E1.1664
G1 X-36.059 Y21.452 E0.2511
G1 X-36.059 Y2.548 E0.9878
G1 X-32.662 Y-0.850 E0.2511
G1 X-28.132 Y-0.850 E0.2367
G1 X-36.504 Y-9.920 E0.6449
G1 X-37.300 Y-11.957 E0.1143
G1 X-37.300 Y-20.452 E0.4439
G1 X-33.902 Y-23.850 E0.2511
G1 X-29.402 Y-23.850 E0.2351
G1 X-29.286 Y-23.967 E0.0086
G1 X-27.154 Y-24.850 E0.1206
G1 X-17.846 Y-24.850 E0.4863
G1 X-15.715 Y-23.967 E0.1206
G1 X-15.597 Y-23.850 E0.0087
G1 X-0.098 Y-23.850 E0.8099
G1 X0.000 Y-23.752 E0.0072
G1 X0.098 Y-23.850 E0.0072
G1 X4.598 Y-23.850 E0.2351
G1 X4.714 Y-23.967 E0.0086
G1 X6.846 Y-24.850 E0.1206
G1 X16.154 Y-24.850 E0.4863
G1 X18.286 Y-23.967 E0.1206
G1 X18.402 Y-23.850 E0.0086
G1 X33.902 Y-23.850 E0.8099
G1 X37.300 Y-20.452 E0.2511
G1 X37.300 Y2.352 E1.1916
G1 X33.902 Y5.750 E0.2511
G1 X13.286 Y5.750 E1.0772
G1 X11.062 Y4.776 E0.1269
G1 X3.300 Y-3.632 E0.5979
G1 X3.300 Y2.353 E0.3127
G1 E-1.0000 F1200
G1 X2.900 Y2.187 F11000
G1 E1.0000 F1200
G1 X-0.263 Y5.350 E0.2337 F1200
G1 X-7.341 Y5.350 E0.3698
G1 X-7.341 Y21.287 E0.8327
G1 X-10.504 Y24.450 E0.2337
G1 X-32.496 Y24.450 E1.1491
G1 X-35.659 Y21.287 E0.2337
G1 X-35.659 Y2.713 E0.9705
G1 X-32.496 Y-0.450 E0.2337
G1 X-27.218 Y-0.450 E0.2758
G1 X-36.159 Y-10.135 E0.6887
G1 X-36.900 Y-12.032 E0.1064
G1 X-36.900 Y-20.287 E0.4313
G1 X-33.737 Y-23.450 E0.2337
G1 X-29.237 Y-23.450 E0.2351
G1 X-29.059 Y-23.628 E0.0131
G1 X-27.074 Y-24.450 E0.1123
G1 X-17.926 Y-24.450 E0.4780
G1 X-15.941 Y-23.628 E0.1123
G1 X-15.763 Y-23.450 E0.0132
G1 X-0.263 Y-23.450 E0.8099
G1 X0.000 Y-23.187 E0.0195
G1 X0.263 Y-23.450 E0.0195
G1 X4.763 Y-23.450 E0.2351
G1 X4.941 Y-23.628 E0.0131
G1 X6.926 Y-24.450 E0.1123
G1 X16.074 Y-24.450 E0.4780
G1 X18.059 Y-23.628 E0.1123
G1 X18.237 Y-23.450 E0.0131
G1 X33.737 Y-23.450 E0.8099
G1 X36.900 Y-20.287 E0.2337
G1 X36.900 Y2.187 E1.1743
G1 X33.737 Y5.350 E0.2337
G1 X13.370 Y5.350 E1.0642
G1 X11.299 Y4.443 E0.1181
G1 X2.900 Y-4.655 E0.6470
G1 X2.900 Y2.187 E0.3575
G1 E-1.0000 F1200
G1 X2.500 Y2.021 F11000
G1 E1.0000 F1200
G1 X-0.429 Y4.950 E0.2164 F1200
G1 X-7.741 Y4.950 E0.3820
G1 X-7.741 Y21.121 E0.8450
G1 X-10.670 Y24.050 E0.2164
G1 X-32.330 Y24.050 E1.1318
G1 X-35.259 Y21.121 E0.2164
G1 X-35.259 Y2.879 E0.9532
G1 X-32.330 Y-0.050 E0.2164
G1 X-26.305 Y-0.050 E0.3149
G1 X-35.813 Y-10.351 E0.7325
G1 X-36.500 Y-12.107 E0.0985
G1 X-36.500 Y-20.121 E0.4187
G1 X-33.571 Y-23.050 E0.2164
G1 X-29.071 Y-23.050 E0.2351
G1 X-28.832 Y-23.289 E0.0176
G1 X-26.995 Y-24.050 E0.1039
G1 X-18.006 Y-24.050 E0.4697
G1 X-16.168 Y-23.289 E0.1039
G1 X-15.929 Y-23.050 E0.0177
G1 X-0.429 Y-23.050 E0.8099
G1 X0.000 Y-22.621 E0.0317
G1 X0.429 Y-23.050 E0.0317
G1 X4.929 Y-23.050 E0.2351
G1 X5.168 Y-23.289 E0.0176
G1 X7.005 Y-24.050 E0.1039
G1 X15.995 Y-24.050 E0.4697
G1 X17.832 Y-23.289 E0.1039
G1 X18.071 Y-23.050 E0.0176
G1 X33.571 Y-23.050 E0.8099
G1 X36.500 Y-20.121 E0.2164
G1 X36.500 Y2.021 E1.1570
G1 X33.571 Y4.950 E0.2164
G1 X13.453 Y4.950 E1.0512
G1 X11.536 Y4.111 E0.1094
G1 X2.500 Y-5.678 E0.6961
G1 X2.500 Y2.021 E0.4023
G1 E-1.0000 F1200
G1 X2.100 Y1.856 F11000
G1 E1.0000 F1200
G1 X-0.595 Y4.550 E0.1991 F1200
G1 X-8.141 Y4.550 E0.3943
G1 X-8.141 Y20.955 E0.8572
G1 X-10.835 Y23.650 E0.1991
G1 X-32.165 Y23.650 E1.1145
G1 X-34.859 Y20.955 E0.1991
G1 X-34.859 Y3.045 E0.9359
G1 X-32.165 Y0.350 E0.1991
G1 X-25.391 Y0.350 E0.3539
G1 X-35.468 Y-10.567 E0.7763
G1 X-36.100 Y-12.183 E0.0906
G1 X-36.100 Y-19.955 E0.4061
G1 X-33.405 Y-22.650 E0.1991
G1 X-28.905 Y-22.650 E0.2351
G1 X-28.606 Y-22.950 E0.0221
G1 X-26.915 Y-23.650 E0.0956
G1 X-18.085 Y-23.650 E0.4614
G1 X-16.394 Y-22.950 E0.0956
G1 X-16.095 Y-22.650 E0.0222
G1 X-0.595 Y-22.650 E0.8099
G1 X0.000 Y-22.055 E0.0439
G1 X0.595 Y-22.650 E0.0439
G1 X5.095 Y-22.650 E0.2351
G1 X5.394 Y-22.950 E0.0221
G1 X7.085 Y-23.650 E0.0956
G1 X15.915 Y-23.650 E0.4614
G1 X17.606 Y-22.950 E0.0956
G1 X17.905 Y-22.650 E0.0221
G1 X33.405 Y-22.650 E0.8099
G1 X36.100 Y-19.955 E0.1991
G1 X36.100 Y1.855 E1.1396
G1 X33.405 Y4.550 E0.1991
G1 X13.537 Y4.550 E1.0381
G1 X11.773 Y3.778 E0.1006
G1 X2.100 Y-6.701 E0.7452
G1 X2.100 Y1.856 E0.4471
G1 E-1.0000 F1200
G1 X1.700 Y1.690 F11000
G1 E1.0000 F1200
G1 X-0.760 Y4.150 E0.1818 F1200
G1 X-8.541 Y4.150 E0.4065
G1 X-8.541 Y20.790 E0.8695
G1 X-11.001 Y23.250 E0.1818
G1 X-31.999 Y23.250 E1.0972
G1 X-34.459 Y20.790 E0.1818
G1 X-34.459 Y3.210 E0.9186
G1 X-31.999 Y0.750 E0.1818
G1 X-24.477 Y0.750 E0.3930
G1 X-35.123 Y-10.783 E0.8201
G1 X-35.700 Y-12.258 E0.0828
G1 X-35.700 Y-19.790 E0.3935
G1 X-33.240 Y-22.250 E0.1818
G1 X-28.740 Y-22.250 E0.2351
G1 X-28.379 Y-22.611 E0.0266
G1 X-26.835 Y-23.250 E0.0873
G1 X-18.165 Y-23.250 E0.4531
G1 X-16.621 Y-22.611 E0.0873
G1 X-16.260 Y-22.250 E0.0266
G1 X-0.760 Y-22.250 E0.8099
G1 X0.000 Y-21.490 E0.0562
G1 X0.760 Y-22.250 E0.0562
G1 X5.260 Y-22.250 E0.2351
G1 X5.621 Y-22.611 E0.0266
G1 X7.165 Y-23.250 E0.0873
G1 X15.835 Y-23.250 E0.4531
G1 X17.379 Y-22.611 E0.0873
G1 X17.740 Y-22.250 E0.0266
G1 X33.240 Y-22.250 E0.8099
G1 X35.700 Y-19.790 E0.1818
G1 X35.700 Y1.690 E1.1223
G1 X33.240 Y4.150 E0.1818
G1 X13.621 Y4.150 E1.0251
G1 X12.010 Y3.445 E0.0919
G1 X1.700 Y-7.725 E0.7942
G1 X1.700 Y1.690 E0.4919
G1 E-1.0000 F1200
G1 X1.300 Y1.524 F11000
G1 E1.0000 F1200
G1 X-0.926 Y3.750 E0.1645 F1200
G1 X-8.941 Y3.750 E0.4188
G1 X-8.941 Y20.624 E0.8817
G1 X-11.167 Y22.850 E0.1645
G1 X-31.833 Y22.850 E1.0799
G1 X-34.059 Y20.624 E0.1645
G1 X-34.059 Y3.376 E0.9012
G1 X-31.833 Y1.150 E0.1645
G1 X-23.564 Y1.150 E0.4321
G1 X-34.778 Y-10.999 E0.8639
G1 X-35.300 Y-12.334 E0.0749
G1 X-35.300 Y-19.624 E0.3809
G1 X-33.074 Y-21.850 E0.1645
G1 X-28.574 Y-21.850 E0.2351
G1 X-28.153 Y-22.271 E0.0311
G1 X-26.756 Y-22.850 E0.0790
G1 X-18.244 Y-22.850 E0.4447
G1 X-16.847 Y-22.272 E0.0790
G1 X-16.426 Y-21.850 E0.0311
G1 X-0.926 Y-21.850 E0.8099
G1 X0.000 Y-20.924 E0.0684
G1 X0.926 Y-21.850 E0.0684
G1 X5.426 Y-21.850 E0.2351
G1 X5.847 Y-22.271 E0.0311
G1 X7.244 Y-22.850 E0.0790
G1 X15.756 Y-22.850 E0.4448
G1 X17.153 Y-22.271 E0.0790
G1 X17.574 Y-21.850 E0.0311
G1 X33.074 Y-21.850 E0.8099
G1 X35.300 Y-19.624 E0.1645
G1 X35.300 Y1.524 E1.1050
G1 X33.074 Y3.750 E0.1645
G1 X13.705 Y3.750 E1.0121
G1 X12.247 Y3.112 E0.0831
G1 X1.300 Y-8.748 E0.8433
G1 X1.300 Y1.524 E0.5367
G1 E-1.0000 F1200
G1 X0.900 Y1.358 F11000
G1 E1.0000 F1200
G1 X-1.092 Y3.350 E0.1472 F1200
G1 X-9.532 Y3.350 E0.4410
G1 X-9.341 Y3.542 E0.0142
G1 X-9.341 Y20.458 E0.8839
G1 X-11.332 Y22.450 E0.1472
G1 X-31.668 Y22.450 E1.0625
G1 X-33.659 Y20.458 E0.1472
G1 X-33.659 Y3.542 E0.8839
G1 X-31.668 Y1.550 E0.1472
G1 X-22.650 Y1.550 E0.4712
G1 X-34.433 Y-11.215 E0.9077
G1 X-34.900 Y-12.409 E0.0670
G1 X-34.900 Y-19.458 E0.3683
G1 X-32.908 Y-21.450 E0.1472
G1 X-28.408 Y-21.450 E0.2351
G1 X-27.926 Y-21.932 E0.0356
G1 X-26.676 Y-22.450 E0.0707
G1 X-18.324 Y-22.450 E0.4364
